frontend/public/svg/food/ice-cream.svg

<svg width="91" height="157" viewBox="0 0 91 157" fill="none" xmlns="http://www.w3.org/2000/svg">
<g clip-path="url(#clip0)">
<path d="M30.6632 18.3648C31.0012 15.9902 31.0968 13.7258 31.6724 11.59C32.9621 6.80538 35.9794 3.56111 40.8566 2.18871C43.978 1.23093 47.2714 0.968705 50.5049 1.42068C56.2807 2.32708 60.2186 6.43781 60.7371 12.247C60.8355 13.3543 60.7515 14.4787 60.7515 15.5058C61.0475 15.7775 61.3787 16.0081 61.736 16.1916C72.6441 19.4221 79.7929 26.9142 84.3184 36.9227C86.7048 42.201 87.9492 47.9846 90.0279 53.4178C91.082 56.1744 90.8247 58.4172 89.6177 61.0406C85.3994 70.2075 81.5513 79.5439 77.3356 88.7123C70.024 104.611 62.6098 120.461 55.0925 136.265C52.2932 142.129 49.0715 147.798 45.8961 153.475C43.6541 157.482 41.9174 157.298 37.7464 155.434C33.7775 153.662 32.4602 150.546 31.2138 147.071C22.5449 122.904 13.8997 98.7287 5.27851 74.5452C3.7033 70.1124 2.45113 65.5627 1.14371 61.0393C0.942811 60.1791 0.959749 59.2822 1.19338 58.4303C3.68258 48.1342 8.47659 38.5375 15.2136 30.3633C18.5039 26.366 22.4973 23.0041 26.9969 20.4435C28.2558 19.7143 29.5271 19.0074 30.6632 18.3648ZM40.0631 146.557H40.831C44.6088 138.806 48.3034 131.013 52.1817 123.312C61.9165 103.985 71.695 84.6791 81.5171 65.3954C82.1623 64.1214 82.7681 62.8277 83.3713 61.5886C83.0313 61.3529 82.9381 61.2322 82.8462 61.2335C69.9413 61.4232 57.0361 61.5617 44.1339 61.8387C33.2472 62.0737 22.3638 62.4654 11.4797 62.8139C10.5509 62.9072 9.62866 63.0566 8.71786 63.261C19.2409 91.2235 29.6523 118.89 40.0631 146.557ZM82.6887 53.5957C81.1253 45.8752 78.8432 39.1903 74.6158 33.1835C70.0273 26.6661 63.8139 22.9198 56.1072 21.3656C52.1895 20.578 48.2898 20.8647 44.3793 21.3353C36.0272 22.2375 28.2843 26.1334 22.5823 32.3027C16.8079 38.4644 12.3494 45.7383 9.47967 53.6803C9.26098 54.4408 9.09014 55.2141 8.96786 55.9959C9.93596 55.9959 10.5975 56.028 11.2545 55.9912C17.1917 55.6539 23.1238 55.1381 29.0656 54.991C44.5513 54.6064 60.0415 54.3938 75.5287 54.0761C77.7406 54.0295 79.9478 53.7847 82.6887 53.5957ZM54.4933 14.1917C54.6436 9.04208 52.5335 6.77517 47.4783 6.96879C45.915 7.04212 44.3668 7.30864 42.8689 7.76228C39.217 8.84393 37.2816 11.6964 37.258 15.725L54.4933 14.1917Z" fill="black"/>
</g>
<defs>
<clipPath id="clip0">
<rect width="89.9183" height="156.208" fill="white" transform="translate(0.804688 0.775879)"/>
</clipPath>
</defs>
</svg>

<svg xmlns="http://www.w3.org/2000/svg" width="91" height="157" fill="none" viewBox="0 0 91 157"><g clip-path="url(#a)"><path fill="#000" d="M30.663 18.365c.338-2.375.434-4.64 1.01-6.775 1.29-4.785 4.306-8.029 9.184-9.401a22.35 22.35 0 0 1 9.648-.768c5.776.906 9.714 5.017 10.232 10.826.099 1.107.014 2.232.014 3.259q.447.408.985.686c10.908 3.23 18.057 10.722 22.582 20.73 2.387 5.279 3.631 11.063 5.71 16.496 1.054 2.756.797 5-.41 7.623-4.219 9.167-8.067 18.503-12.282 27.671a4057 4057 0 0 1-22.243 47.553c-2.8 5.864-6.022 11.533-9.197 17.21-2.242 4.007-3.979 3.823-8.15 1.959-3.968-1.772-5.286-4.888-6.532-8.363A39175 39175 0 0 1 5.279 74.545C3.703 70.112 2.45 65.563 1.144 61.04a5.3 5.3 0 0 1 .05-2.609 70 70 0 0 1 14.02-28.067 42.5 42.5 0 0 1 11.783-9.92c1.259-.729 2.53-1.436 3.666-2.078m9.4 128.192h.768c3.778-7.751 7.472-15.544 11.35-23.245a14418 14418 0 0 1 29.336-57.917c.645-1.274 1.251-2.567 1.854-3.806-.34-.236-.433-.357-.525-.355-12.905.19-25.81.328-38.712.605-10.887.235-21.77.626-32.654.975q-1.395.14-2.762.447zM82.69 53.596c-1.564-7.72-3.846-14.406-8.073-20.412-4.589-6.518-10.802-10.264-18.509-11.818-3.917-.788-7.817-.501-11.728-.03a34.77 34.77 0 0 0-21.797 10.967A62.15 62.15 0 0 0 9.48 53.68q-.329 1.141-.512 2.316c.968 0 1.63.032 2.287-.005 5.937-.337 11.869-.853 17.81-1 15.486-.385 30.976-.597 46.464-.915 2.212-.047 4.419-.291 7.16-.48M54.493 14.192c.15-5.15-1.96-7.417-7.015-7.223a19 19 0 0 0-4.61.793c-3.651 1.082-5.586 3.934-5.61 7.963z"/></g><defs><clipPath id="a"><path fill="#fff" d="M.805.776h89.918v156.208H.805z"/></clipPath></defs></svg>
